X: 15
T:Coucou
Z:Transcrit et/ou corrig? par Michel BELLON - 2007-04-06
Z:Pour toute observation mailto:galouvielle@free.fr
M:2/4
L:1/8
Q:1/4=120
K:Cmaj
V:1
z4 | z2 ze |: c2Ge | c2 Ge |
w:Cou-cou Ah cou-cou Ah cou-
ef/2e/2 de/2d/2 | c2 Ge | c2 Ge | c2 Ge |
w:cou je te vois tu me vois Ah cou-cou Ah cou-cou Ah cou-
ef/2e/2 de/2d/2 | c2 z2 || eg ge | df fd |
w:cou je te vois tu me vois Tra-la la la la la la la
ce ec | Bd d2 |[P:Intro] eg ge |
w:la la la la la la la  Tra-la la la
df fd | ce ec | B2d2 | c2 ze :|
w:la la la la Ah qu'il est dr?l' ce jeu l? Cou-
V:2
z4 | z2z2 |: e2 gg | e2 gg | aa/2g/2 fg/2f/2 | e2 ge | e2 ge | e2 ge | aa/2g/2 fg/2f/2 | e2z2 || 
e3g | d3f | c3e | B/2A/2B/2c/2 d2 | e3g | d3f | c3e | B/2A/2B/2c/2 d/2c/2d/2e/2 | c2z2 :|
<end>
<start>
